X:1
T:The Shanty Boys
M:6/8
L:1/8
K:Eb
 G,-| G2 G G2 G| G G2- G z F| G2 G F2 D| B,3- B, z D| F2 F F2 F| F2 F F2 F|\
 C2 D E2 F| G3- G/2 z C/2 C| C2 D E2 F| G c2- c z c| B =A2 G2 A| B3- B z D|\
 E2 ED B,2| C2 D E2 F| G G2 F2 D| C3- C2||
